X: 3
T: Wallop The Spot
R: jig
M: 6/8
L: 1/8
K: Edor
|:~F3 DFA|BAF ~d3|~F3 DFA|{Bc}BAF AFE|~F3 DFA|BAF ~d3|fed edB|{Bc}BAF AFE:||:Bcd ecA|fed ecA|Bcd ec/2B/2A|BAF AFE|Bcd eca|fed efg|{ab}agf edB|BAF AFE:||:DFA ~d3|edc dAF|DFA d2A|BAF AFE|DFA ~d3|edc d2e|fed edB|BAF AFE:||:FEF DFA|BAF dAG|FEF DFA|B/2B/2AF AFE|FEF DFA|BAF dde|fed edB|B/2B/2AF AFE:||:Bcd ec^e|fed ecA|Bcd ec/2B/2A|BAF AFE|Bcd ec^e|fed efg|agf edB|BAF AFE:||:DFA d/2d/2d/2d|edc dAF|DFA d/2d/2d/2A|BAF AFE|DFA d/2d/2d/2d|edc d/2d/2d/2e|fed edB|BAF AFE:||:~e3 dBA|~g afd|e/2f/2g/2e dBA|BAB {GA}GED|~e3 dBA|~g afd|e/2f/2g/2e dBA|Bed e2d:||:egb egb|egb bge|dfa dfa|dfa agf|g2g ~a3|bge ~g3|age dBA|Bed e2d:|


Tune 818	Setting 26068

